X:1
T:Title
%%score { ( 1 3 5 ) | ( 2 4 ) }
L:1/8
M:4/4
K:Eb
V:1 treble nm="Grand Piano"
V:3 treble 
V:5 treble 
V:2 bass 
V:4 bass 
V:1
 z4 z2 z[Q:1/4=108] G | B2 c2 B2 G2 | F2 z2 B,2 z B | c2 e2 d2 c2 | B6 z2 | G2 F2 B3 G | %6
 F2 E2 G3 G | F2 B2 =A2 c2 | [DB]6[K:bass] z2 | [Ge]2 [Ge]>[Ge] [Gd]2 [Gc]>c | %10
 z2 G4[K:bass] z2[K:treble] | G2 B2 [Gc]2 [Ge]2 | [Ad]6 z2 | [Ad]2 [Ad]2 z2 z A | %14
 [Ad]2 [Ad]2 z2 z A | [Ac]2 [Ac]>[Ac] [Ad]2 [Ac]2 | [GB]6 z2 | [Ge]2 [Ge]>[Ge] [Gd]2 [Gc]>c | %18
 z2 G4[K:bass] z2[K:treble] | G2 B2 [Ge]2 [Gd]2 | [Ac]6 z2 | [Af]2 f2 c3 c | [Ge]2 e2 B3 B | %23
 [B,AB]2 [AB]>[AB] [Ac]2 [Ad]2 |[M:7/8] [Ge]-[Ge]-[Ge]- [Ge]3 z |] %25
V:2
 z8 | [E,,E,]2 [G,B,E]2 [G,B,E]2 [G,B,E]2 | [E,,E,]2 [E,G,B,]2 [E,G,]2 z2 | %3
 [A,,A,]2 [A,CE]2 [A,CE]2 [A,CE]2 | E,,2 [G,B,]2 [G,B,]2 z2 | [B,,,B,,]2 [A,B,D]2 [A,B,D]2 z2 | %6
 [E,,E,]2 [G,B,]2 [G,B,E]2 z2 | [F,,F,]2 [F,B,D]2 [F,,F,]2 [F,=A,E]2 | [B,,B,]2 F,,2 B,,,2 z2 | %9
 z4 z2[K:treble] [G,B,E]2 | [E,,E,]2 [G,B,E]2 B,,,2 [G,B,]2 | %11
 [E,,E,]2 [G,B,EG]2 [G,,G,]2 [G,B,E]2 | [F,,F,]2 [A,B,]2 [A,B,]2 z2 | %13
 [F,,F,]2 [A,B,D]2 [B,,,B,,]2 [A,B,]2 | [F,,F,]2 [A,B,D]2 [B,,,B,,]2 [A,B,]2 | %15
 [F,,F,]2 [A,B,D]2 [B,,,B,,]2 [A,B,D]2 | [E,,E,]2 [G,B,]2 [G,B,]2 z2 | z4 z2[K:treble] [G,B,E]2 | %18
 [E,,E,]2 [G,B,E]2 B,,,2 [G,B,]2 | [E,,E,]2 [G,B,EG]2 [G,,G,]2 [G,B,E]2 | %20
 [A,,A,]2[K:treble] [A,C]2 [A,C]2 z A | [A,,A,]2[K:treble] [A,CFA]2 A3 A | %22
 [B,,B,]2[K:treble] [G,B,EG]2 G3 G | B,,2 [A,B,D]2 [B,,,B,,]2 [A,B,D]2 | %24
[M:7/8] [E,G,B,]2 B,,2 E,,2 z |] %25
V:3
 x8 | x8 | z2 E4 z2 | x8 | z2 E2 E2 z A | x8 | x8 | x8 | z2[K:bass] F,2 B,,2 z2 | x8 | %10
 G2 z2[K:bass] B,,2 E[K:treble]E | x8 | z2 D2 D2 z A | z4 [Ac]4 | z4 [Ac]4 | x8 | z2 E2 E2 z2 | %17
 x8 | G2 z2[K:bass] B,,2 E[K:treble]E | x8 | z2 E2 E2 z c | x8 | x8 | x8 |[M:7/8] x7 |] %25
V:4
 x8 | x8 | x8 | x8 | x8 | x8 | x8 | x8 | x8 | [E,,E,]2 [G,B,E]2 [B,,,B,,]2[K:treble] z z/ G/ | x8 | %11
 x8 | x8 | x8 | x8 | x8 | x8 | [E,,E,]2 [G,B,E]2 [B,,,B,,]2[K:treble] z z/ G/ | x8 | x8 | %20
 x2[K:treble] x6 | z4[K:treble] [A,CF]2 z2 | z4[K:treble] [G,B,E]2 z2 | x8 |[M:7/8] x7 |] %25
V:5
 x8 | x8 | x8 | x8 | x8 | x8 | x8 | x8 | x2[K:bass] x6 | x8 | x4[K:bass] x3[K:treble] x | x8 | x8 | %13
 z4 z2 D2 | z4 z2 D2 | x8 | x8 | x8 | x4[K:bass] x3[K:treble] x | x8 | x8 | x8 | x8 | x8 | %24
[M:7/8] x7 |] %25

